app/images/popout.svg

<?xml version="1.0" encoding="UTF-8"?>
<svg width="22px" height="22px" viewBox="0 0 22 22" version="1.1" xmlns="http://www.w3.org/2000/svg" xmlns:xlink="http://www.w3.org/1999/xlink">
    <!-- Generator: Sketch 48.2 (47327) - http://www.bohemiancoding.com/sketch -->
    <title>popout</title>
    <desc>Created with Sketch.</desc>
    <defs>
        <polygon id="path-1" points="-0.00035 0 10.9999 0 10.9999 10.9997 -0.00035 10.9997"></polygon>
    </defs>
    <g id="MetaMascara-Mobile---structured-TOKEN" stroke="none" stroke-width="1" fill="none" fill-rule="evenodd" transform="translate(-327.000000, -96.000000)">
        <g id="popout" transform="translate(327.000000, 96.000000)">
            <g id="Group-3" transform="translate(11.000000, 0.000000)">
                <mask id="mask-2" fill="white">
                    <use xlink:href="#path-1"></use>
                </mask>
                <g id="Clip-2"></g>
                <path d="M10.9229,0.6177 C10.8209,0.3737 10.6269,0.1787 10.3819,0.0767 C10.2599,0.0267 10.1309,-0.0003 9.9999,-0.0003 L3.9999,-0.0003 C3.4479,-0.0003 2.9999,0.4477 2.9999,0.9997 C2.9999,1.5527 3.4479,1.9997 3.9999,1.9997 L7.5859,1.9997 L0.2929,9.2927 C-0.0981,9.6837 -0.0981,10.3167 0.2929,10.7067 C0.4879,10.9027 0.7439,10.9997 0.9999,10.9997 C1.2559,10.9997 1.5119,10.9027 1.7069,10.7067 L8.9999,3.4137 L8.9999,6.9997 C8.9999,7.5527 9.4479,7.9997 9.9999,7.9997 C10.5519,7.9997 10.9999,7.5527 10.9999,6.9997 L10.9999,0.9997 C10.9999,0.8697 10.9739,0.7407 10.9229,0.6177" id="Fill-1" fill="#4A4A4A" mask="url(#mask-2)"></path>
            </g>
            <path d="M19,10 C18.448,10 18,10.448 18,11 L18,19 C18,19.551 17.551,20 17,20 L3,20 C2.449,20 2,19.551 2,19 L2,5 C2,4.449 2.449,4 3,4 L11,4 C11.552,4 12,3.552 12,3 C12,2.448 11.552,2 11,2 L3,2 C1.346,2 0,3.346 0,5 L0,19 C0,20.654 1.346,22 3,22 L17,22 C18.654,22 20,20.654 20,19 L20,11 C20,10.448 19.552,10 19,10" id="Fill-4" fill="#4A4A4A"></path>
        </g>
    </g>
</svg>

<svg height="22" viewBox="0 0 22 22" width="22" xmlns="http://www.w3.org/2000/svg" xmlns:xlink="http://www.w3.org/1999/xlink"><mask id="a" fill="#fff"><path d="m-.00035 0h11.00025v10.9997h-11.00025z" fill="none"/></mask><g fill="#4a4a4a" fill-rule="evenodd"><path d="m10.9229.6177c-.102-.244-.296-.439-.541-.541-.122-.05-.251-.077-.382-.077h-6c-.552 0-1 .448-1 1 0 .553.448 1 1 1h3.586l-7.293 7.293c-.391.391-.391 1.024 0 1.414.195.196.451.293.707.293s.512-.097.707-.293l7.293-7.293v3.586c0 .553.448 1 1 1s1-.447 1-1v-6c0-.13-.026-.259-.077-.382" mask="url(#a)" transform="translate(11)"/><path d="m19 10c-.552 0-1 .448-1 1v8c0 .551-.449 1-1 1h-14c-.551 0-1-.449-1-1v-14c0-.551.449-1 1-1h8c.552 0 1-.448 1-1s-.448-1-1-1h-8c-1.654 0-3 1.346-3 3v14c0 1.654 1.346 3 3 3h14c1.654 0 3-1.346 3-3v-8c0-.552-.448-1-1-1"/></g></svg>
